modules/hawcons-filled/icons/pen.svg

<?xml version="1.0" encoding="UTF-8" standalone="no"?>
<svg width="32px" height="32px" viewBox="0 0 32 32" version="1.1" xmlns="http://www.w3.org/2000/svg" xmlns:xlink="http://www.w3.org/1999/xlink" xmlns:sketch="http://www.bohemiancoding.com/sketch/ns">
    <!-- Generator: Sketch 3.0.3 (7891) - http://www.bohemiancoding.com/sketch -->
    <title>icon 134 pen</title>
    <desc>Created with Sketch.</desc>
    <defs></defs>
    <g id="Page-1" stroke="none" stroke-width="1" fill="none" fill-rule="evenodd" sketch:type="MSPage">
        <g id="icon-134-pen" sketch:type="MSArtboardGroup" fill="#929292">
            <path d="M18.9999998,25 L18.9999998,9 L13,9 L13,25 L18.9999998,25 L18.9999998,25 Z M18.9999998,26 L16,30 L13,26 L18.9999998,26 L18.9999998,26 Z M18.9999998,8 L18.9999998,5.00086423 C18.9999998,3.89581743 18.1017392,3 17.0020867,3 L14.997913,3 C13.8944961,3 13,3.90162726 13,5.00086422 L13,8 L18.9999998,8 L18.9999998,8 Z" id="pen" sketch:type="MSShapeGroup"></path>
        </g>
    </g>
</svg>

<svg width="32" height="32" viewBox="0 0 32 32" xmlns="http://www.w3.org/2000/svg"><path d="M19 25V9h-6v16h6zm0 1l-3 4-3-4h6zm0-18V5c0-1.104-.898-2-1.998-2h-2.004A2.003 2.003 0 0 0 13 5v3h6z" fill="#929292" fill-rule="evenodd"/></svg>
